images/teleg-blue.svg

<svg width="16" height="16" viewBox="0 0 16 16" fill="none" xmlns="http://www.w3.org/2000/svg">
<path d="M13.8068 2.43638C13.8068 2.43638 15.1018 1.93138 14.9934 3.15771C14.9578 3.66271 14.6341 5.43038 14.3821 7.34205L13.5188 13.0054C13.5188 13.0054 13.4468 13.835 12.7991 13.9794C12.1518 14.1234 11.1804 13.4744 11.0004 13.33C10.8564 13.2217 8.30243 11.5984 7.4031 10.805C7.1511 10.5884 6.8631 10.1557 7.4391 9.65071L11.2164 6.04338C11.6481 5.61005 12.0798 4.60005 10.2811 5.82671L5.24443 9.25338C5.24443 9.25338 4.66876 9.61438 3.58976 9.28971L1.2511 8.56805C1.2511 8.56805 0.387765 8.02705 1.86276 7.48605C5.46043 5.79071 9.88543 4.05938 13.8064 2.43605" fill="#2161AB"/>
</svg>

<svg width="16" height="16" fill="none" xmlns="http://www.w3.org/2000/svg"><path d="M13.807 2.436s1.295-.505 1.186.722c-.035.505-.359 2.272-.61 4.184l-.864 5.663s-.072.83-.72.974c-.647.144-1.619-.505-1.799-.649-.144-.108-2.698-1.732-3.597-2.525-.252-.217-.54-.65.036-1.154l3.777-3.608c.432-.433.864-1.443-.935-.216L5.244 9.253s-.575.361-1.654.037l-2.34-.722s-.863-.541.612-1.082c3.597-1.695 8.022-3.427 11.943-5.05" fill="#2161AB"/></svg>
